flaticon/office/cutter.svg

<svg xmlns="http://www.w3.org/2000/svg" width="32" height="32" viewBox="0 0 24 24">
    <path d="M 23.96875 3.5 C 23.851562 2.78125 23.449219 2.179688 22.8125 1.859375 L 20.457031 0.582031 C 18.621094 -0.414062 16.34375 -0.0546875 14.867188 1.421875 L 3.808594 12.480469 C 3.328125 12.921875 3.128906 13.558594 3.207031 14.199219 C 3.261719 14.617188 3.433594 15 3.703125 15.304688 L 0.132812 18.910156 C 0.015625 19.027344 -0.0234375 19.1875 0.015625 19.308594 L 1.210938 23.699219 C 1.253906 23.820312 1.371094 23.941406 1.492188 23.980469 C 1.53125 23.980469 1.570312 23.980469 1.613281 23.980469 C 1.730469 23.980469 1.8125 23.941406 1.890625 23.859375 L 7.820312 17.890625 L 8.121094 18.070312 C 8.480469 18.269531 8.917969 18.390625 9.316406 18.390625 C 9.917969 18.390625 10.515625 18.152344 10.996094 17.710938 L 23.332031 5.375 C 23.851562 4.894531 24.089844 4.214844 23.96875 3.5 Z M 1.8125 22.820312 L 0.851562 19.308594 L 4.355469 15.804688 L 7.171875 17.5 Z M 22.773438 4.816406 L 10.394531 17.191406 C 9.917969 17.710938 9.117188 17.792969 8.519531 17.433594 L 8.164062 17.21875 C 8.128906 17.144531 8.085938 17.089844 8 17.03125 L 4.488281 14.917969 C 4.453125 14.898438 4.417969 14.890625 4.382812 14.882812 C 4.179688 14.671875 4.039062 14.417969 4.007812 14.117188 C 3.96875 13.71875 4.085938 13.320312 4.367188 13.039062 L 15.425781 1.980469 C 16.183594 1.222656 17.222656 0.824219 18.21875 0.824219 C 18.859375 0.824219 19.5 0.984375 20.097656 1.300781 L 22.453125 2.578125 C 22.851562 2.78125 23.089844 3.179688 23.171875 3.617188 C 23.25 4.058594 23.089844 4.496094 22.773438 4.816406 Z M 22.773438 4.816406"/>
    <path d="M 20.894531 4.136719 L 14.90625 10.125 C 14.746094 10.285156 14.746094 10.523438 14.90625 10.683594 C 14.988281 10.765625 15.066406 10.804688 15.1875 10.804688 C 15.304688 10.804688 15.386719 10.765625 15.464844 10.683594 L 21.453125 4.695312 C 21.613281 4.535156 21.613281 4.296875 21.453125 4.136719 C 21.292969 3.976562 21.054688 3.976562 20.894531 4.136719 Z M 20.894531 4.136719"/>
</svg>

<svg xmlns="http://www.w3.org/2000/svg" width="32" height="32" viewBox="0 0 24 24">
    <path d="M23.969 3.5c-.117-.719-.52-1.32-1.157-1.64L20.457.581c-1.836-.996-4.113-.637-5.59.84L3.81 12.48c-.48.442-.68 1.079-.602 1.72.055.417.227.8.496 1.105L.133 18.91c-.117.117-.156.277-.117.399l1.195 4.39c.043.121.16.242.281.281h.121c.117 0 .2-.039.278-.12l5.93-5.97.3.18c.36.2.797.32 1.195.32.602 0 1.2-.238 1.68-.68L23.332 5.376c.52-.48.758-1.16.637-1.875zM1.812 22.82l-.96-3.511 3.503-3.504L7.172 17.5zM22.773 4.816L10.395 17.191c-.477.52-1.278.602-1.875.243l-.356-.215A.434.434 0 0 0 8 17.03l-3.512-2.113a.372.372 0 0 0-.105-.035 1.286 1.286 0 0 1-.375-.766c-.04-.398.078-.797.36-1.078L15.425 1.98A3.996 3.996 0 0 1 18.219.824c.64 0 1.281.16 1.879.477l2.355 1.277c.399.203.637.602.719 1.04.078.44-.082.878-.399 1.198zm0 0"/>
    <path d="M20.895 4.137l-5.989 5.988a.385.385 0 0 0 0 .559c.082.082.16.12.281.12.118 0 .2-.038.278-.12l5.988-5.989a.385.385 0 0 0 0-.558.385.385 0 0 0-.558 0zm0 0"/>
</svg>
